!!!!SEGMENT: pl-kk--kk-i-10--018-002_leszczynski-wladyslaw--missa-per-octavas-et-in-terra.krn
!!!cenid: 16xx:1212
!!!COM: Leszczyński, Władysław
!!!COM-rismid: pe30025416
!!!CDT: 1616-1680
!!!CNT: Polish
!!!OPR: Missa per octavas
!!!OTL: Et in terra
!!!OMV: 002
!!!PDT:
!!!AGN: Sacred; Mass
!!!SMS-siglum: PL-Kk
!!!SMS-shelfmark: Kk.I.10
!!!SMS-shelfwork: 018-002 M
!!!SMS-variant:
!!!SMS-altvar:
!!!NIFC-rismid: 1001153984
!!!URL-scan: http://repozytorium.nifc.pl/skany/pl-kk-nut--i-10
!!!ONB-nifc: UWAGA: Części Mszy: 1. Kyrie, 2. Et in terra, 3. Sanctus, 4. Agnus Dei. S (skan 0030-0033), T (0078-0082), B (0129-0132).
!!!key:
**kern	**text	**kern	**text	**kern	**text
*part3	*part3	*part2	*part2	*part1	*part1
*staff3	*staff3	*staff2	*staff2	*staff1	*staff1
*Ibass	*	*Itenor	*	*Isoprn	*
*I"Bassus.	*	*I"Tenor	*	*I"[Soprano]	*
*I'B	*	*I'T	*	*I'[S]	*
*clefF4	*	*clefC4	*	*clefC1	*
*k[]	*	*k[]	*	*k[]	*
*F:	*	*F:	*	*F:	*
*M2/1	*	*M2/1	*	*M2/1	*
*met(C)	*	*met(C)	*	*met(C)	*
*all\right	*	*all\right	*	*all\right	*
=1-	=1-	=1-	=1-	=1-	=1-
!LO:TX:b:t=Et in terra	!	!	!	!	!
00r	.	1r	.	1.g	Et
.	.	1.c	Et	.	.
*	*	*	*	*2\right	*
.	.	.	.	2g\	in
=2-	=2-	=2-	=2-	=2-	=2-
.	.	.	.	2.a\	ter-
*	*	*2\right	*	*	*
.	.	2c\	in	.	.
.	.	.	.	4g/	-ra
.	.	2.d\	ter-	2f/	pax
.	.	.	.	2a\	ho-
.	.	4c\	-ra	.	.
=3-	=3-	=3-	=3-	=3-	=3-
1rD	.	2B\	pax	2g/	-mi-
.	.	2d\	ho-	2f/	-ni-
2r	.	2.A/	-mi-	1e	-bus
1A\	Bo-	.	.	.	.
.	.	4A/	-ni-	.	.
=4-	=4-	=4-	=4-	=4-	=4-
.	.	2D/	-bus	00r	.
*2\right	*	*	*	*	*
2F#X\	-nae	1d	bo-	.	.
2.G\	Vo-	.	.	.	.
.	.	1B\	-nae	.	.
4Fny\	.	.	.	.	.
=5-	=5-	=5-	=5-	=5-	=5-
4E\	.	.	.	.	.
4D\	.	.	.	.	.
2C/	-lun-	1c	Vo-	.	.
!LO:LB:g=original	!	!	!	!	!
0D	-ta-	.	.	.	.
.	.	2B\	-lun-	.	.
=6-	=6-	=6-	=6-	=6-	=6-
.	.	1A	-ta-	1rg	.
2GG/	-tis	1B	-tis	2r	.
2E\	lau-	.	.	2g\	lau-
=7-	=7-	=7-	=7-	=7-	=7-
2.F\	-da-	0r	.	2.a\	-da-
4G\	.	.	.	4b\	.
2A\	.	.	.	4cc\	.
.	.	.	.	4dd\	.
2E\	.	.	.	1cc\	.
=8-	=8-	=8-	=8-	=8-	=8-
2.G\	.	2.G/	be-	.	.
.	.	.	.	2b\	-mus
4G\	-mus	4G/	-ne-	.	.
1C	te	2.c\	-di-	1cc	te
.	.	4d\	.	.	.
=9-	=9-	=9-	=9-	=9-	=9-
1rD	.	2e\	.	1r	.
.	.	2B\	-ci-	.	.
!	!	!LO:LB:g=original	!	!	!
2rBB	.	1d	-mus	2.a\	a-
4D\	A-	.	.	.	.
4D\	-do-	.	.	4a\	-do-
!	!	!	!	!LO:LB:g=original	!
=10-	=10-	=10-	=10-	=10-	=10-
2.G\	-ra-	1G	te	2.b\	-ra-
4A\	.	.	.	4cc\	.
2B\	.	0r	.	4dd\	.
.	.	.	.	4ee\	.
2F#X\	.	.	.	1dd\	.
=11-	=11-	=11-	=11-	=11-	=11-
2.A\	.	.	.	.	.
.	.	.	.	2cc#X\	-mus
4A\	-mus	.	.	.	.
1D	te	2rc	.	0dd	te
.	.	2.d\	Glo-	.	.
=12-	=12-	=12-	=12-	=12-	=12-
2r	.	.	.	.	.
.	.	4d\	-ri-	.	.
2.D/	Glo-	2A/	-fi-	.	.
.	.	4A/	-ca-	1r	.
4D/	-ri-	4B\	.	.	.
2AA/	-fi-	4c\	.	.	.
.	.	4A\	.	.	.
=13-	=13-	=13-	=13-	=13-	=13-
2.BB/	-ca-	2d\	.	2rb	.
.	.	2.D/	.	2.dd\	Glo-
4C/	.	.	.	.	.
1D	-mus	.	.	.	.
.	.	4E/	.	4dd\	-ri-
.	.	4F/	.	2a\	-fi-
.	.	4G/	.	.	.
=14-	=14-	=14-	=14-	=14-	=14-
*	*	*lig	*	*	*
1AA	te	1A	.	1ccny	-ca-
!LO:LB:g=original	!	!	!	!	!
1rD	.	2.E/	.	1b	-mus
*	*	*Xlig	*	*	*
.	.	4E/	-mus	.	.
=15-	=15-	=15-	=15-	=15-	=15-
2r	.	2A\	te	1r	.
2.A\	glo-	2.c\	glo-	.	.
.	.	.	.	2rb	.
4A\	-ri-	4c\	-ri-	.	.
2E\	-fi-	2G/	-fi-	2.ee\	glo-
=16-	=16-	=16-	=16-	=16-	=16-
2.G\	-ca-	2.B\	-ca-	.	.
.	.	.	.	4ee\	-ri-
.	.	.	.	1b	-fi-
4Fny\	.	4A/	.	.	.
2E\	.	1.G	.	.	.
4D/	.	.	.	1cc\	-ca-
4C/	.	.	.	.	.
=17-	=17-	=17-	=17-	=17-	=17-
2.G\	.	.	.	.	.
.	.	2G/	-mus	2b\	-mus
4G\	-mus	.	.	.	.
0C	te	0G	te	2cc\	te
.	.	.	.	1g\	Gra-
=18-	=18-	=18-	=18-	=18-	=18-
.	.	.	.	2a\	-ti-
!	!	!LO:LB:g=original	!	!	!
00rC	.	1r	.	1b	-as
=19-	=19-	=19-	=19-	=19-	=19-
.	.	1C	Gra-	1cc	a-
.	.	1D	-ti-	1a	-gi-
=20-	=20-	=20-	=20-	=20-	=20-
.	.	1E	-as	1g	-mus
!	!	!	!	!LO:LB:g=original	!
00rC	.	1F	a-	4a\	ti-
.	.	.	.	4b\	.
.	.	.	.	1cc\	.
=21-	=21-	=21-	=21-	=21-	=21-
.	.	1D	-gi-	.	.
.	.	.	.	2b\	.
.	.	1C	-mus	2.cc\	.
.	.	.	.	4b\	.
=22-	=22-	=22-	=22-	=22-	=22-
*	*	*lig	*	*	*
.	.	1F	ti-	4a\	.
.	.	.	.	4g\	.
.	.	.	.	4f/	.
.	.	.	.	4e/	.
00r	.	1G	.	1d	-bi
*	*	*Xlig	*	*	*
=23-	=23-	=23-	=23-	=23-	=23-
.	.	0G	-bi	2r	.
.	.	.	.	1b	pro-
.	.	.	.	2cc\	-pter
=24-	=24-	=24-	=24-	=24-	=24-
.	.	1G	pro-	2dd\	Ma-
.	.	.	.	2b\	-gnam
*	*	*lig	*	*	*
00r	.	1A	-pter	2rb	.
.	.	.	.	2cc\	p(ro)-
=25-	=25-	=25-	=25-	=25-	=25-
.	.	1B	.	1dd	-pter
*	*	*Xlig	*	*	*
.	.	1c	Ma-	1ee	Ma-
=26-	=26-	=26-	=26-	=26-	=26-
*	*	*lig	*	*	*
.	.	1B-X	-gnam	1dd	-gnam
00rG	.	1A	.	2.cc\	glo-
.	.	.	.	4a\	.
*	*	*Xlig	*	*	*
=27-	=27-	=27-	=27-	=27-	=27-
*	*	*lig	*	*	*
.	.	1G	.	1b-X	.
.	.	1A	.	4a\	.
.	.	.	.	4b-\	.
.	.	.	.	1cc\	.
*	*	*Xlig	*	*	*
=28-	=28-	=28-	=28-	=28-	=28-
.	.	0G,<	.	.	.
.	.	.	.	4b-y\	-ri-
.	.	.	.	4a\	-am
!	!	!	!	!LO:LB:g=original	!
1r	.	.	.	1b-	tu-
=29-	=29-	=29-	=29-	=29-	=29-
2rF	.	1F	glo-	1cc	-am
2.A\	Do-	.	.	.	.
.	.	1E	-ri-	2r	.
4A\	-mi-	.	.	.	.
2G\	-ne	.	.	2.cc\	Do-
=30-	=30-	=30-	=30-	=30-	=30-
*	*	*lig	*	*	*
2F\	DE-	1D	-am	.	.
.	.	.	.	4cc\	-mi-
2D\	-us	.	.	2bny\	-ne
2G\	Rex	1E	.	1cc	DE-
2E\	Cae-	.	.	.	.
*	*	*Xlig	*	*	*
=31-	=31-	=31-	=31-	=31-	=31-
*	*	*lig	*	*	*
4A\	-le-	1F	tu-	2a\	-us
4G\	.	.	.	.	.
2.F\	.	.	.	2.dd\	Rex
.	.	1D	.	.	.
4E\	.	.	.	4ee\	.
2D\	.	.	.	4ff\	.
.	.	.	.	4dd\	.
*	*	*Xlig	*	*	*
!LO:LB:g=original	!	!LO:LB:g=original	!	!	!
=32-	=32-	=32-	=32-	=32-	=32-
2G\	.	0C	-am	4ee\	Cae-
.	.	.	.	4dd\	.
2C/	.	.	.	4cc\	.
.	.	.	.	4b\	.
1C	-ſtis	.	.	2cc\	-le-
.	.	.	.	2g/	-ſtis
=33-	=33-	=33-	=33-	=33-	=33-
00r	.	1G	Do-	2r	.
.	.	.	.	1dd	DE-
.	.	1F	-mi-	.	.
.	.	.	.	2cc\	-us
=34-	=34-	=34-	=34-	=34-	=34-
*	*	*lig	*	*	*
.	.	1E	-ne	2cc\	Pa-
.	.	.	.	2b\	-ter
.	.	1F	.	2r	.
.	.	.	.	1cc\	DE-
*	*	*Xlig	*	*	*
=35-	=35-	=35-	=35-	=35-	=35-
2r	.	1D	DE-	.	.
1F	DE-	.	.	2b-X\	-us
!	!	!	!	!LO:PB:g=original	!
.	.	1C	-us	2a\	Pa-
2E\	-us	.	.	2g\	.
=36-	=36-	=36-	=36-	=36-	=36-
1D	Pa-	1F	Rex	4a\	.
.	.	.	.	4g\	.
.	.	.	.	4a\	.
.	.	.	.	4b-y\	.
1C	-ter	1G	Cae-	2.cc\	.
.	.	.	.	4b-X\	.
=37-	=37-	=37-	=37-	=37-	=37-
*	*	*lig	*	*	*
1F	o-	1A	-le-	2.a\	.
.	.	.	.	4g/	.
!	!	!LO:TX:a:t=P:problem:♭ above	!	!	!
1BB-X	-mni-	1B-X	.	4f/	.
.	.	.	.	4d/	.
.	.	.	.	2dd\	-ter
*	*	*Xlig	*	*	*
=38-	=38-	=38-	=38-	=38-	=38-
*lig	*	*	*	*	*
1C	-po-	1.G	.	2cc\	O-
.	.	.	.	2b-X\	-mni-
2.D\	.	.	.	2.a\	-po-
!	!	!LO:TX:b:t=P:problem:# below	!	!	!
.	.	2F#X/	.	.	.
*Xlig	*	*	*	*	*
4D\	.	.	.	4a\	.
=39-	=39-	=39-	=39-	=39-	=39-
1GG	-tens	1G	-ſtis	1bny	-tens
00r	.	1C	DE-	2rb	.
.	.	.	.	1cc\	DE-
=40-	=40-	=40-	=40-	=40-	=40-
.	.	1D	-us	.	.
.	.	.	.	2b-X\	-us
.	.	1Fny	Pa-	1a	Pa-
=41-	=41-	=41-	=41-	=41-	=41-
*	*	*lig	*	*	*
.	.	1E	-ter	1g	-ter
1rD	.	1F	.	2r	.
*	*	*	*	*	*ij
.	.	.	.	1cc\	DE-
*	*	*Xlig	*	*	*
=42-	=42-	=42-	=42-	=42-	=42-
*	*	*lig	*	*	*
2r	.	1D	O-	.	.
1F	DE-	.	.	2bny\	-us
!	!	!	!	!LO:LB:g=original	!
.	.	1C	.	1cc	Pa-
2E\	-us	.	.	.	.
*	*	*Xlig	*	*	*
=43-	=43-	=43-	=43-	=43-	=43-
*	*	*lig	*	*	*
1D	Pa-	1BB	-mni-	2f/	-ter
*	*	*	*	*	*Xij
.	.	.	.	1ff	DE-
2.C/	.	1C	.	.	.
.	.	.	.	2ee\	-us
4D/	.	.	.	.	.
*	*	*Xlig	*	*	*
=44-	=44-	=44-	=44-	=44-	=44-
2E\	-ter	0C	-po-	4ee\	Pa-
.	.	.	.	4dd\	.
1F	O-	.	.	4cc\	.
.	.	.	.	4b\	.
.	.	.	.	2a\	.
4E\	.	.	.	4g/	.
4D/	.	.	.	4f/	.
!LO:PB:g=original	!	!	!	!	!
=45-	=45-	=45-	=45-	=45-	=45-
2E\	.	0C	-tens	2g/	.
2A\	.	.	.	2f/	-ter
2.G\	.	.	.	2.e/	O-
4F\	.	.	.	4f/	.
!	!	!LO:PB:g=original	!	!	!
=46-	=46-	=46-	=46-	=46-	=46-
2E\	.	1G	Do-	2g/	.
4D\	.	.	.	2.a\	.
4C/	.	.	.	.	.
2.D/	-mni-	1F	-mi-	.	.
.	.	.	.	4g\	.
.	.	.	.	4a\	.
4D/	-po-	.	.	4b\	.
=47-	=47-	=47-	=47-	=47-	=47-
*	*	*lig	*	*	*
1AA	-tens	1E	-ne	2.cc\	-mni-
.	.	.	.	4cc\	-po-
2rBB	.	1F	.	1f	-tens
1D\	Do-	.	.	.	.
*	*	*Xlig	*	*	*
=48-	=48-	=48-	=48-	=48-	=48-
.	.	1D	Fi-	2r	.
2BB-X/	-mi-	.	.	1b-X	Do-
1FF	-ne	1C	-li	.	.
.	.	.	.	2a\	-mi-
!	!	!	!	!LO:LB:g=original	!
=49-	=49-	=49-	=49-	=49-	=49-
2F\	Fi-	1F	U-	2a\	-ne
!	!	!	!	!LO:N:acc=#	!
2D/	-li	.	.	2bn\	Fi-
4E\	U-	1G	-ni-	2cc\	-li
4F\	.	.	.	.	.
4G\	-ni-	.	.	2b-X\	U-
4E\	.	.	.	.	.
=50-	=50-	=50-	=50-	=50-	=50-
*	*	*lig	*	*	*
1F	-ge-	1A	-ge-	4a\	-ni-
.	.	.	.	4g\	-ge-
.	.	.	.	4f/	.
.	.	.	.	4e/	.
!	!	!LO:TX:a:t=P:problem:♭ above	!	!	!
1BB-X	.	1B-X	.	2d/	.
.	.	.	.	2dd\	.
*	*	*Xlig	*	*	*
=51-	=51-	=51-	=51-	=51-	=51-
4C\	.	1.G	.	2cc\	.
4D\	.	.	.	.	.
4E-X\	.	.	.	2b-X\	.
4C\	.	.	.	.	.
2.D\	.	.	.	2.a\	.
.	.	2F#X/	-ni-	.	.
4D\	ni-	.	.	4a\	-ni-
=52-	=52-	=52-	=52-	=52-	=52-
0GG	-te	0G	-te	2g\	-te
.	.	.	.	1d	Je-
.	.	.	.	2g\	-ſu
!LO:LB:g=original	!	!	!	!	!
=53-	=53-	=53-	=53-	=53-	=53-
1D	Je-	1Fny	Je-	1.a	Chri-
1GG	-ſu	1B-X	-ſu	.	.
.	.	.	.	1g\	.
=54-	=54-	=54-	=54-	=54-	=54-
*	*ij	*lig	*	*	*
1D	Je-	1A	Chri-	.	.
.	.	.	.	4f/	.
.	.	.	.	4e/	.
!	!	!LO:TX:a:t=P:problem:♭ above	!	!	!
1BB-X	-ſu	1B-X	.	2d/	-ſte
.	.	.	.	2dd\	Je-
*	*Xij	*Xlig	*	*	*
=55-	=55-	=55-	=55-	=55-	=55-
*lig	*	*lig	*	*	*
1C	Je-	1G	.	2cc\	-ſu
.	.	.	.	1b-X	Chri-
!	!	!LO:TX:b:t=P:problem:# below	!	!	!
1D	.	1F#X	.	.	.
!	!	!	!	!LO:LB:g=original	!
.	.	.	.	2a\	.
*Xlig	*	*Xlig	*	*	*
=56-	=56-	=56-	=56-	=56-	=56-
2.E-X\	.	0G	.	2g\	.
.	.	.	.	1g	.
4D\	.	.	.	.	.
2C/	.	.	.	.	.
2BBny/	.	.	.	2f/	.
=57-	=57-	=57-	=57-	=57-	=57-
*lig	*	*	*	*	*
1C	.	0A	.	4e/	.
.	.	.	.	4f#X/	.
.	.	.	.	1g	.
1D	.	.	.	.	.
!	!	!	!	!LO:TX:b:t=P:problem:# below	!
.	.	.	.	2f#X/	.
*Xlig	*	*	*	*	*
=58-	=58-	=58-	=58-	=58-	=58-
!	!	!LO:TX:a:t=4	!	!	!
2BB/	ſu	00G\	-ſte	0g	-ste
1C	Chri-	.	.	.	.
4BB/	.	.	.	.	.
4AA/	.	.	.	.	.
=59-	=59-	=59-	=59-	=59-	=59-
2BB/	.	.	.	2r	.
2C/	.	.	.	2.g/	Do-
1GG	-ſte	.	.	.	.
.	.	.	.	4g/	-mi-
.	.	.	.	2g/	-ne
!	!	!LO:LB:g=original	!	!	!
=60-	=60-	=60-	=60-	=60-	=60-
2rBB	.	1r	.	1g	DE-
2.C/	Do-	.	.	.	.
.	.	2r	.	2g/	-us
4C/	-mi-	.	.	.	.
2C/	-ne	2.c\	Do-	2.cc\	A-
=61-	=61-	=61-	=61-	=61-	=61-
1C	DE-	.	.	.	.
.	.	4c\	-mi-	4bny\	.
.	.	2c\	-ne	2a\	.
2C/	-us	1c	DE-	2g\	-gnus
!LO:LB:g=original	!	!	!	!	!
2.F\	A-	.	.	2.a\	De-
=62-	=62-	=62-	=62-	=62-	=62-
.	.	1A	-us	.	.
4Eny\	.	.	.	4g/	.
4D/	.	.	.	2fny/	.
4C/	.	.	.	.	.
2BB-X/	.	2B-X\	A-	2g\	.
2AA/	-gnus	2c\	-gnus	1a\	.
=63-	=63-	=63-	=63-	=63-	=63-
!	!	!LO:SIC:v:s=1D	!	!	!
1D	DE-	1E	DE-	.	.
.	.	.	.	4g/	.
.	.	.	.	4f/	.
!	!	!	!	!LO:LB:g=original	!
1C	-i	2C/	-i	1g	.
.	.	2.c\	Fi-	.	.
=64-	=64-	=64-	=64-	=64-	=64-
2rBB	.	.	.	1f	-i
.	.	4Bny\	-li-	.	.
2.F\	Fi-	2A\	-us	.	.
.	.	0A	Pa-	2r	.
4E\	-li-	.	.	.	.
2D/	-us	.	.	2.a\	Fi-
=65-	=65-	=65-	=65-	=65-	=65-
2C#X/	Pa-	.	.	.	.
.	.	.	.	4g/	-li-
2D/	.	.	.	2f/	-us
0AA	.	0A	-tris	2f/	Pa-
.	.	.	.	4e/	.
.	.	.	.	4d/	.
=66-	=66-	=66-	=66-	=66-	=66-
.	.	.	.	1e	.
2D/	tris	2r	.	2f/	-tris
2BB-X/	qui	2d\	Qui	2b-X\	Qui
=67-	=67-	=67-	=67-	=67-	=67-
1BB-y	tol-	1d	tol-	1b-y	tol-
2FF/	-lis	1c	-lis	1a	-lis
2F\	pec-	.	.	.	.
=68-	=68-	=68-	=68-	=68-	=68-
2D/	-ca-	2r	.	2dd\	pec-
2AA/	-ta	2c\	pec-	1cc	-ca-
0Cny	mun-	2.A/	-ca-	.	.
.	.	.	.	2bny\	-ta
.	.	4Fny/	-ta	.	.
=69-	=69-	=69-	=69-	=69-	=69-
.	.	1G	mun-	1cc	mun-
2FF/	-di	2A\	-di	2a\	-di
1F\	Mi-	1A\	Mi-	1a\	Mi-
=70-	=70-	=70-	=70-	=70-	=70-
2D/	-ſe-	2A\	-ſe-	2a\	-ſe-
!LO:LB:g=original	!	!LO:LB:g=original	!	!	!
2D/	-re-	2d\	-re-	1.a	-re-
2C#X/	-re	2e\	-re	.	.
=71-	=71-	=71-	=71-	=71-	=71-
0D	No-	0d	No-	.	.
.	.	.	.	2b-X\	-re
.	.	.	.	1a	No-
!	!	!	!	!LO:LB:g=original	!
=72-	=72-	=72-	=72-	=72-	=72-
!	!	!	!	!LO:N:acc=#	!
2GG/	-bis	2B\	-bis	2bn\	-bis
2E\	Qui	2B\	Qui	2g#X/	Qui
1AA	tol-	1c	tol-	1a	tol-
=73-	=73-	=73-	=73-	=73-	=73-
2E\	-lis	2B\	-lis	2gny/	-lis
2Cny/	pec-	2e\	pec-	2cc\	pec-
1.F	-ca-	1c	-ca-	2cc\	-ca-
.	.	.	.	1a\	-ta
=74-	=74-	=74-	=74-	=74-	=74-
.	.	1c	-ta	.	.
2E\	-ta	.	.	2g/	.
*lig	*	*lig	*	*	*
1A	Mun-	1c	mun-	4cc\	.
.	.	.	.	4a\	.
.	.	.	.	1cc\	.
=75-	=75-	=75-	=75-	=75-	=75-
1G	.	1d	.	.	.
.	.	.	.	2b\	mun-
*Xlig	*	*Xlig	*	*	*
0C	-di	1c	-di	1cc	-di
=76-	=76-	=76-	=76-	=76-	=76-
.	.	2r	.	0r	.
.	.	2.c\	Su-	.	.
2r	.	.	.	.	.
.	.	4B\	-ſci-	.	.
2.F\	Su-	2A/	-pe	.	.
=77-	=77-	=77-	=77-	=77-	=77-
.	.	4A/	de-	2r	.
4E\	-ſci-	4G/	-pre-	.	.
2D/	-pe	2F/	-ca-	2.dd\	Su-
2.G\	de-	2G/	-ti-	.	.
.	.	.	.	4cc\	-ſci-
.	.	1G/	-o-	2b\	-pe
4F\	-pre-	.	.	.	.
=78-	=78-	=78-	=78-	=78-	=78-
2E\	-ca-	.	.	2ee\	de-
2F\	-ti-	2A/	-nem	2cc\	-pre-
1.D	-o-	1F	No-	2dd\	-ca-
.	.	.	.	2a\	-ti-
=79-	=79-	=79-	=79-	=79-	=79-
.	.	1F	ſtram	2b-X\	-o-
2AA/	-nem	.	.	2cc\	-nem
!	!	!	!	!LO:LB:g=original	!
0C	No-	2r	.	2cc\	No-
.	.	2c\	Qui	4b-X\	.
.	.	.	.	4a\	.
!	!	!LO:LB:g=original	!	!	!
=80-	=80-	=80-	=80-	=80-	=80-
.	.	1c	ſe-	1g	.
!LO:LB:g=original	!	!	!	!	!
2FF/	-ſtram	1A	-des	2a\	-ſtram
2F\	Qui	.	.	2a\	qui
=81-	=81-	=81-	=81-	=81-	=81-
1F	ſe-	2r	.	1a	ſe-
.	.	2c\	ad	.	.
1D	-des	2.d\	dex-	2f/	-des
.	.	.	.	2a\	ad
.	.	4c\	-te-	.	.
=82-	=82-	=82-	=82-	=82-	=82-
2r	.	2B\	-ram	2.bny\	dex-
*	*	*	*ij	*	*
2G\	ad	2B\	ad	.	.
.	.	.	.	4b\	-te-
2.A\	dex-	2.c\	dex-	1a	-ram
4G\	-te-	4B\	-te-	.	.
=83-	=83-	=83-	=83-	=83-	=83-
0F	-ram	2A/	-ram	1a	Pa-
*	*	*	*Xij	*	*
.	.	2.d\	Pa-	.	.
.	.	.	.	1a	-tris
.	.	4c\	.	.	.
.	.	1c\	.	.	.
=84-	=84-	=84-	=84-	=84-	=84-
0G	Pa-	.	.	2r	.
.	.	4B\	.	1g	Mi-
.	.	4A\	.	.	.
.	.	1B	.	.	.
.	.	.	.	2g/	-ſe-
=85-	=85-	=85-	=85-	=85-	=85-
2C/	-tris	2c\	tris	2.g/	-re-
1C	Mi-	2G/	Mi-	.	.
.	.	.	.	8a\L	.
.	.	.	.	8b\J	.
.	.	2G/	-ſe-	1cc	.
2C/	-ſe-	2.G/	-re-	.	.
=86-	=86-	=86-	=86-	=86-	=86-
2.C/	-re-	.	.	1.cc	re
.	.	8A\L	.	.	.
.	.	8B\J	.	.	.
.	.	1c	.	.	.
8D\L	.	.	.	.	.
8E\J	.	.	.	.	.
1F	.	.	.	.	.
.	.	2c\	-re	1a\	No-
=87-	=87-	=87-	=87-	=87-	=87-
1D	-re	1.d	No-	.	.
.	.	.	.	2b\	.
!	!	!	!	!LO:LB:g=original	!
0E	No-	.	.	2g#X\	.
.	.	2c\	.	1a\	.
!	!	!LO:LB:g=original	!	!	!
=88-	=88-	=88-	=88-	=88-	=88-
.	.	1B	.	.	.
.	.	.	.	2g#y\	.
1AA	-bis	2.c#X\	.	1a	-bis
.	.	4B\	.	.	.
=89-	=89-	=89-	=89-	=89-	=89-
2r	.	1A	-bis	2r	.
2.F\	Quo-	.	.	2.a\	Quo-
.	.	1rA	.	.	.
4E\	-ni-	.	.	4gny/	-ni-
2D/	-am	.	.	2f/	-am
=90-	=90-	=90-	=90-	=90-	=90-
1C	tu	1G	Quo-	2g\	tu
.	.	.	.	1a	ſo-
!LO:LB:g=original	!	!	!	!	!
1D	ſo-	1F	-ni-	.	.
.	.	.	.	2a\	-lus
=91-	=91-	=91-	=91-	=91-	=91-
*	*	*lig	*	*	*
1AA	-lus	1E	-am	1a	ſan-
2.D/	San-	1F	.	1.a	-ctus
4C/	.	.	.	.	.
*	*	*Xlig	*	*	*
=92-	=92-	=92-	=92-	=92-	=92-
*lig	*	*lig	*	*	*
1BB-X	.	1D	tu	.	.
.	.	.	.	2b-X\	San-
1C	.	1C	.	1g	.
*Xlig	*	*Xlig	*	*	*
=93-	=93-	=93-	=93-	=93-	=93-
1FF	ctus	1F	ſo-	1a	-ctus
1rD	.	1G	-lus	2r	.
.	.	.	.	2g/	tu
=94-	=94-	=94-	=94-	=94-	=94-
*	*	*lig	*	*	*
2rBB	.	1A	San-	2e/	ſo-
2D/	tu	.	.	1a	-lus
!	!	!LO:TX:a:t=P:problem:♭ above	!	!	!
1GG	ſo-	1B-X	.	.	.
.	.	.	.	2.g\	Do-
*	*	*Xlig	*	*	*
=95-	=95-	=95-	=95-	=95-	=95-
1E-X	-lus	1.G	.	.	.
.	.	.	.	4a\	.
.	.	.	.	4b-X\	.
.	.	.	.	4g\	.
2C/	Do-	.	.	2.a\	.
2D/	-mi-	2F#X/	.	.	.
.	.	.	.	4a\	-mi-
!	!	!	!	!LO:LB:g=original	!
=96-	=96-	=96-	=96-	=96-	=96-
1GG	-nus	0G	-ctus	1g	-nus
2r	.	.	.	2r	.
2G\	tu	.	.	1b-X\	tu
=97-	=97-	=97-	=97-	=97-	=97-
1.F	ſo-	1.cny	tu	.	.
.	.	.	.	4a\	.
.	.	.	.	4g\	.
.	.	.	.	2a\	ſo-
2B-X\	-lus	2B-X\	ſo-	2b-X\	-lus
=98-	=98-	=98-	=98-	=98-	=98-
*lig	*	*lig	*	*	*
1F	Do-	1A	-lus	2cc\	tu
.	.	.	.	2.dd\	ſo-
1G	.	1G	.	.	.
.	.	.	.	4cc\	.
.	.	.	.	2b-X\	-lus
*Xlig	*	*Xlig	*	*	*
=99-	=99-	=99-	=99-	=99-	=99-
1.D	.	1A	Do-	2.f#X/	Do-
.	.	.	.	4g/	.
*	*	*lig	*	*lig	*
.	.	1F#X	.	1a	.
2D/	-mi-	.	.	.	.
=100-	=100-	=100-	=100-	=100-	=100-
0.GG	-nus	1G	.	1.g	.
*	*	*Xlig	*	*Xlig	*
!	!	!LO:LB:g=original	!	!	!
.	.	1G	-mi-	.	.
.	.	.	.	2g/	-mi-
=101-	=101-	=101-	=101-	=101-	=101-
.	.	0G	-nus	1g	-nus
!LO:LB:g=original	!	!	!	!	!
2rF	.	.	.	2dd\	tu
2G\	tu	.	.	1ee\	ſo-
=102-	=102-	=102-	=102-	=102-	=102-
1A	ſo-	1c	tu	.	.
.	.	.	.	1cc	-lus
1G	-lus	1d	ſo-	.	.
.	.	.	.	2bny\	al-
=103-	=103-	=103-	=103-	=103-	=103-
1C	Al-	0c	-lus	2cc\	.
.	.	.	.	2.g/	.
2.Eny\	.	.	.	.	.
.	.	.	.	4fny/	.
.	.	.	.	4g/	.
4F\	.	.	.	4a/	.
!	!	!	!	!LO:LB:g=original	!
=104-	=104-	=104-	=104-	=104-	=104-
*	*	*lig	*	*	*
2G\	.	1G	Al-	2b\	-ti-
4F\	.	.	.	4a\	-ſsi-
4E\	.	.	.	4g\	.
1F	.	1A	.	1cc	-mus
*	*	*Xlig	*	*	*
=105-	=105-	=105-	=105-	=105-	=105-
*	*	*lig	*	*	*
1.BB-X	.	1B-X	.	1r	.
.	.	1c	.	2r	.
2AA/	.	.	.	2cc\	tu
*	*	*Xlig	*	*	*
=106-	=106-	=106-	=106-	=106-	=106-
*lig	*	*	*	*	*
1BB-X	.	1B-X	-ti-	1dd	ſo-
1FF	.	1A	-ſsi-	2cc\	-lus
.	.	.	.	2a\	al-
*Xlig	*	*	*	*	*
=107-	=107-	=107-	=107-	=107-	=107-
1.C	-ti-	0G	-mus	1.cc	-ti-
2C/	-ſsi-	.	.	2cc\	-ſsi-
=108-	=108-	=108-	=108-	=108-	=108-
1FF	-mus	1Fny	Je-	1a	-mus
2rBB	.	0B-X	-ſu	0r	.
2BB-X/	Je-	.	.	.	.
=109-	=109-	=109-	=109-	=109-	=109-
2E-X\	-ſu	.	.	.	.
*	*ij	*	*	*	*
2BB-X/	Je-	.	.	.	.
*	*	*lig	*	*	*
1D	.	1A	Chri-	2a\	Je-
.	.	.	.	2dd\	-ſu
!LO:PB:g=original	!	!	!	!	!
=110-	=110-	=110-	=110-	=110-	=110-
!	!	!LO:TX:a:t=P:problem:♭ above	!	!	!
2GG,</	-ſu	1B-X	.	4dd\	Chri-
.	.	.	.	4cc\	.
*	*Xij	*	*	*	*
2BB-X/	Je-	.	.	4b-X\	.
.	.	.	.	4a\	.
*	*	*Xlig	*	*	*
*	*	*lig	*	*	*
1C	-ſu	1G	.	2g\	.
.	.	.	.	2cc\	.
=111-	=111-	=111-	=111-	=111-	=111-
!	!	!LO:TX:a:t=P:problem:# above	!	!	!
1D	Chri-	1F#X	.	2b-X\	.
.	.	.	.	2a\	.
*	*	*Xlig	*	*	*
1E-X	.	1G	.	2.g/	.
.	.	.	.	4a/	.
=112-	=112-	=112-	=112-	=112-	=112-
2D/	.	0A	.	2f#X/	.
2C/	.	.	.	1g	.
1D	.	.	.	.	.
.	.	.	.	2f#X/	.
!	!	!	!	!LO:LB:g=original	!
=113-	=113-	=113-	=113-	=113-	=113-
0GG	-ſte	0G	-ſte	2g/	-ste
.	.	.	.	2bny\	Cum
.	.	.	.	2dd\	ſan-
.	.	.	.	2b\	-cto
=114-	=114-	=114-	=114-	=114-	=114-
00r	.	0rA	.	4ee\	Spi-
.	.	.	.	4dd\	.
.	.	.	.	4cc\	.
.	.	.	.	4b\	.
.	.	.	.	4a\	.
.	.	.	.	4b\	.
.	.	.	.	4cc\	.
.	.	.	.	4b\	.
=115-	=115-	=115-	=115-	=115-	=115-
.	.	1rA	.	4a\	.
.	.	.	.	4b\	.
.	.	.	.	1cc	.
.	.	2rF	.	.	.
.	.	2G/	Cum	2b\	-ri-
!	!	!LO:LB:g=original	!	!	!
=116-	=116-	=116-	=116-	=116-	=116-
1rD	.	2A/	San-	1cc	-tu
.	.	2Fny/	-cto	.	.
*	*	*	*	*	*ij
2rBB	.	4c\	Spi-	2g/	Cum
.	.	4Bny\	.	.	.
2C/	Cum	4A/	.	1a\	ſan-
.	.	4G/	.	.	.
=117-	=117-	=117-	=117-	=117-	=117-
2D/	San-	1.F	.	.	.
2AA/	-cto	.	.	2fny/	-cto
2.C/	Spi-	.	.	2.g/	Spi-
.	.	2E/	-ri-	.	.
4C/	-ri-	.	.	4g/	-ri-
=118-	=118-	=118-	=118-	=118-	=118-
1FF	-tu	1F	-tu	1a	-tu
*	*	*	*	*	*Xij
00r	.	2rF	.	0r	.
.	.	2c\	in	.	.
=119-	=119-	=119-	=119-	=119-	=119-
.	.	4F/	glo-	.	.
.	.	4G/	-ri-	.	.
.	.	2A/	-a	.	.
.	.	4B-X\	De-	1r	.
.	.	4c\	-i	.	.
.	.	4d\	Pa-	.	.
.	.	4B-\	-tris	.	.
=120-	=120-	=120-	=120-	=120-	=120-
.	.	1c	a-	2rb	.
.	.	.	.	2cc\	in
2r	.	0F	-men	4a\	glo-
.	.	.	.	4b\	-ri-
2F\	in	.	.	2cc\	-a
=121-	=121-	=121-	=121-	=121-	=121-
4BB-X/	glo-	.	.	(4dd\	De-
4C/	-ri-	.	.	4cc\)	.
2D/	-a	.	.	(4b-X\	-i
.	.	.	.	4a\)	.
!	!	!	!	!LO:LB:g=original	!
(4E-X\	DE-	1rA	.	4g\	Pa-
4F\)	.	.	.	4a\	.
(4G\	-i	.	.	1b-X\	-tris
4E-\)	.	.	.	.	.
!LO:LB:g=original	!	!	!	!	!
=122-	=122-	=122-	=122-	=122-	=122-
1F	Pa-	2r	.	.	.
.	.	2c\	in	2a\	A-
1BB-X	-tris	4B-X\	glo-	1b-X	-men
.	.	4c\	-ri-	.	.
.	.	2d\	-a	.	.
=123-	=123-	=123-	=123-	=123-	=123-
*lig	*	*	*	*	*
1BB-y	a-	4d\	DE-	2rb	.
.	.	4c\	-i	.	.
.	.	4B-X\	Pa-	2dd\	A-
!	!	!LO:SIC:v:t=custos G	!	!	!
.	.	4A\	-tris	.	.
!	!	!LO:PB:g=original	!	!	!
1C	.	1G	A-	2g/	-men
.	.	.	.	2.cc\	A-
*Xlig	*	*	*	*	*
=124-	=124-	=124-	=124-	=124-	=124-
!	!	!LO:SIC:v:s=0A	!	!	!
1FF	-men	0G	-men	.	.
.	.	.	.	4b-X\	.
.	.	.	.	4a\	.
.	.	.	.	4g/	.
2r	.	.	.	1f	.
2F\	A-	.	.	.	.
=125-	=125-	=125-	=125-	=125-	=125-
2D/	-men	1r	.	1f	-men
2.B-X\	A-	.	.	.	.
.	.	2r	.	1r	.
4A\	.	.	.	.	.
4G\	.	2d\	A-	.	.
4F\	.	.	.	.	.
=126-	=126-	=126-	=126-	=126-	=126-
1G	.	2G/	-men	2r	.
*	*	*	*	*	*ij
.	.	2.c\	A-	2cc\	A-
0F	-men	.	.	2a\	-men
.	.	4Bny\	.	.	.
.	.	4A\	.	2.ff\	A-
.	.	4G/	.	.	.
=127-	=127-	=127-	=127-	=127-	=127-
.	.	2A\	.	.	.
.	.	.	.	4ee\	.
.	.	1B	.	4dd\	.
.	.	.	.	4cc\	.
1r	.	.	.	4bny\	.
.	.	.	.	4g\	.
.	.	2G/	.	1dd\	-men
=128-	=128-	=128-	=128-	=128-	=128-
2r	.	1.A	.	.	.
2A\	A-	.	.	2cc#X\	A-
2D/	-men	.	.	1dd	-men
*	*ij	*	*	*	*
2.G\	A-	2B\	.	.	.
=129-	=129-	=129-	=129-	=129-	=129-
.	.	1B	-men	2r	.
4F\	.	.	.	.	.
4Eny\	.	.	.	2g/	A-
4D\	.	.	.	.	.
1C	men	2r	.	2e/	-men
*	*	*	*ij	*	*
!	!	!	!	!LO:LB:g=original	!
.	.	2c\	A-	2.a/	A-
=130-	=130-	=130-	=130-	=130-	=130-
1D	A-	2A/	.	.	.
.	.	.	.	4g/	.
.	.	2.d\	.	4f/	.
.	.	.	.	4e/	.
*lig	*	*	*	*	*
1BBny	-men	.	.	2d/	-men
.	.	4c\	.	.	.
.	.	4B\	.	1f/	A-
.	.	4A\	.	.	.
=131-	=131-	=131-	=131-	=131-	=131-
1C	.	2G/	-men	.	.
.	.	2.c\	A-	2e/	.
*Xlig	*	*	*	*	*
1FF	A-	.	.	1.f	.
.	.	4B\	.	.	.
.	.	4c\	.	.	.
.	.	4A\	.	.	.
=132-	=132-	=132-	=132-	=132-	=132-
0GG	-men	2B\	.	.	.
.	.	1c	-men	2e/	.
.	.	.	.	2d/	-men
.	.	2B\	A-	2g/	A-
!LO:LB:g=original	!	!	!	!	!
=133-	=133-	=133-	=133-	=133-	=133-
2rBB	.	1c	-men	1e	-men
2C/	A-	.	.	.	.
2AA/	-men	1r	.	2r	.
2.C/	A-	.	.	2ccny\	A-
=134-	=134-	=134-	=134-	=134-	=134-
.	.	2r	.	2g/	-men
4BB-X/	.	.	.	.	.
4AA/	.	2c\	A-	2.cc\	A-
4GG/	.	.	.	.	.
1.FF	.	2A\	.	.	.
.	.	.	.	4b-X\	.
.	.	2c\	.	4a\	.
.	.	.	.	4g\	.
=135-	=135-	=135-	=135-	=135-	=135-
.	.	2c\	-men	2a\	.
2C/	-men	4c\	A-	4g/	.
.	.	4B-X\	.	4f/	.
0FF	A-	4A\	.	2e/	-men
.	.	4G\	.	.	.
.	.	2F/	-men	1a\	A-
=136-	=136-	=136-	=136-	=136-	=136-
.	.	1c	A-	.	.
.	.	.	.	4g/	.
.	.	.	.	4f/	.
1Cl	-men	1cl	-men	1gl	-men
*	*Xij	*	*Xij	*	*Xij
==	==	==	==	==	==
*-	*-	*-	*-	*-	*-
!!!system-decoration: [(s1,s2,s3)]
!!!RDF**kern: > = above
!!!RDF**kern: < = below
!!!RDF**kern: l = terminal long
!!!AIN: 1 bass 1 soprn 1 tenor
!!!ENC: Andrzej Kubiczek
!!!END: 2021-07-22
!!!ENC: Andrzej Kubiczek
!!!END: 2021-07-14
